icons/hanami.svg

<?xml version="1.0" encoding="UTF-8"?>
<svg width="256px" height="262px" viewBox="0 0 256 262" version="1.1" xmlns="http://www.w3.org/2000/svg" xmlns:xlink="http://www.w3.org/1999/xlink" preserveAspectRatio="xMidYMid">
		<g>
				<polygon fill-opacity="0.65" fill="#DC3011" points="152.228422 2.78770325 255.861141 119.8427 176.588411 254.483117 23.8718053 220.596458 8.96986157 65.0758631"></polygon>
				<polygon fill-opacity="0.65" fill="#DC3011" points="176.152247 10.7228513 253.18324 146.76637 147.649492 261.982843 5.31554324 197.085121 23.0737926 41.8647358"></polygon>
				<polygon fill="#DC3011" points="127.177581 0 252.882778 92.9506108 203.335665 241.130539 46.9108503 239.735952 0 90.7121437"></polygon>
				<path d="M127.939832,79.215521 C156.512958,79.215521 179.676359,102.378922 179.676359,130.952048 C179.676359,159.525174 156.512958,182.688575 127.939832,182.688575 C99.3667066,182.688575 76.2033054,159.525174 76.2033054,130.952048 C76.2033054,102.378922 99.3667066,79.215521 127.939832,79.215521 Z M127.939832,90.3292934 C105.504575,90.3292934 87.3170778,108.51679 87.3170778,130.952048 C87.3170778,153.387305 105.504575,171.574802 127.939832,171.574802 C150.37509,171.574802 168.562587,153.387305 168.562587,130.952048 C168.562587,108.51679 150.37509,90.3292934 127.939832,90.3292934 Z M146.110467,114.641629 L152.79176,123.655665 L127.939832,154.555018 L103.159952,123.655665 L109.795641,114.641629 L146.110467,114.641629 Z" fill="#FFFFFF"></path>
		</g>
</svg>

<svg xmlns="http://www.w3.org/2000/svg" viewBox="0 0 255.861 261.983">
  <path fill="#dc3011" fill-opacity=".65" d="M176.588 254.483 23.872 220.596 8.97 65.076 152.228 2.788l103.633 117.055z"/>
  <path fill="#dc3011" fill-opacity=".65" d="M147.65 261.983 5.315 197.085l17.758-155.22 153.078-31.142 77.031 136.043z"/>
  <path fill="#dc3011" d="M203.336 241.13 46.91 239.737 0 90.712 127.178 0l125.705 92.95z"/>
  <path fill="#fff" d="M127.94 79.216c28.573 0 51.736 23.163 51.736 51.736 0 28.573-23.163 51.737-51.736 51.737-28.573 0-51.737-23.164-51.737-51.737s23.164-51.736 51.737-51.736zm0 11.113c-22.435 0-40.623 18.188-40.623 40.623s18.188 40.623 40.623 40.623 40.623-18.188 40.623-40.623-18.188-40.623-40.623-40.623zm18.17 24.313 6.682 9.014-24.852 30.899-24.78-30.9 6.636-9.013z"/>
</svg>
